X: 47
T:Chapter of Things. WCa.47
M:6/8
L:1/8
Q:90
S:Wm. Calvert MS, 1812, Leyburn, Yorks.
R:Air
O:England
A:North Yorkshire
Z:vmp.Chris Partington, May 2003
K:Bb
F|FBB BAB|c2AF2F|Fcc c>de|f2dB2f/e/|!
d>ef fed|g2ec2c/d/|ede edc|f2dB2F|!
FBB Acc|dBB ecc|d>ef e>dc|(B3B2)F|!
FBB Acc|dBB ecc|d>ef edc|(B3B2):||
